X: 19
T: The Sailor Lassie
%R: slip-jig
B: "Scots Reel & Country Dances for the Year 1769", R.Bremner, ed. p.107 #1
F: http://digital.nls.uk/special-collections-of-printed-music/pageturner.cfm?id=104993891
Z: 2016 John Chambers <jc:trillian.mit.edu>
M: 9/8
L: 1/8
K: C
% - - - - - - - - - - - - - - - - - - - - - - - - - - - - -
V: 1
F |\
(E/F/G)E c>dc TB2G | (A/B/c)A GEC D2F |\
(E/F/G)E c>dc TB2G | (A/B/c)A GEC C2 ::\
e |\
c2c (e/f/g)e gec | (e/f/g)e afd d2e |
c2c (e/f/g)e gec | (e/f/g)e gec c2e |\
c2c (e/f/g)e gec | (e/f/g)e afd d2e |\
cGc edc TB>AG | (A/B/c)A GEC C2 :|
% - - - - - - - - - - - - - - - - - - - - - - - - - - - - -
V: 2 clef=bass middle=D
z |\
C3 C3 G3 | F3 E2A G3 | C3 C3 G3 | F3 G3 C2 :: z | C3 C3 C3 | C3 D3 D3 |
C3 c3 c3 | c3 G3 C3 | c3 c3 c3 | c3 d3 d3 | c3 C3 G3 | F3 G3 C2 :|
% - - - - - - - - - - Dance description - - - - - - - - - -
%%begintext align
%% Cast of one Cu: hands round 4 with the 3d Cu: .|
%% cast up and hands round with the Top :|
%% cross over one Cu: lead up to the Top and cast of and turn your Partner :|
%%endtext
%%sep 2 2 400


